assets/img/braze_icons/refresh-cw-01.svg

<svg fill="none" height="24" viewBox="0 0 24 24" width="24" xmlns="http://www.w3.org/2000/svg"><path d="m17.6589 6.34511c-1.4489-1.44997-3.4484-2.34511-5.6588-2.34511-4.41827 0-8 3.58172-8 8 0 4.4183 3.58173 8 8 8 3.6457 0 6.7243-2.4395 7.6874-5.7773.1532-.5306.7075-.8366 1.2381-.6835s.8367.7074.6835 1.2381c-1.2035 4.1708-5.0485 7.2227-9.609 7.2227-5.52284 0-10-4.4772-10-10 0-5.52285 4.47716-10 10-10 2.7624 0 5.2648 1.12139 7.0735 2.93138.6361.63651 1.3206 1.42634 1.9264 2.16296v-3.09434c0-.55228.4477-1 1-1s1 .44772 1 1v6c0 .5523-.4477 1-1 1h-6c-.5523 0-1-.4477-1-1 0-.55228.4477-1 1-1h3.9693c-.6841-.85856-1.5461-1.89013-2.3104-2.65489z" fill="#801ed7"/></svg>

<svg width="24" height="24" viewBox="0 0 24 24" fill="none" xmlns="http://www.w3.org/2000/svg">
<path d="M17.6589 6.34511C16.21 4.89514 14.2105 4 12.0001 4C7.58183 4 4.0001 7.58172 4.0001 12C4.0001 16.4183 7.58183 20 12.0001 20C15.6458 20 18.7244 17.5605 19.6875 14.2227C19.8407 13.6921 20.395 13.3861 20.9256 13.5392C21.4562 13.6923 21.7623 14.2466 21.6091 14.7773C20.4056 18.9481 16.5606 22 12.0001 22C6.47726 22 2.0001 17.5228 2.0001 12C2.0001 6.47715 6.47726 2 12.0001 2C14.7625 2 17.2649 3.12139 19.0736 4.93138C19.7097 5.56789 20.3942 6.35772 21 7.09434V4C21 3.44772 21.4477 3 22 3C22.5523 3 23 3.44772 23 4V10C23 10.5523 22.5523 11 22 11H16C15.4477 11 15 10.5523 15 10C15 9.44772 15.4477 9 16 9H19.9693C19.2852 8.14144 18.4232 7.10987 17.6589 6.34511Z" fill="#801ED7"/>
</svg>
